!!!COM: Berg, Alban (Maria Johannes)
!!!OTL: Lyrische Suite (Lyric Suite) for String Quartet
!!!OMV: III: Allegro misterioso
!!!example: 450
!!!work: Ber-13
**kern	**dynam	**kern	**dynam	**kern	**dynam	**kern	**dynam
*part4	*part4	*part3	*part3	*part2	*part2	*part1	*part1
*staff4	*	*staff3	*	*staff2	*	*staff1	*
*I"Violoncello	*	*I"Viola	*	*I"Violin II	*	*I"Violin I	*
*I'Vc.	*	*I'Vla.	*	*I'Vln. II	*	*I'Vln. I	*
*clefF4	*	*clefC3	*	*clefG2	*	*clefG2	*
*k[]	*	*k[]	*	*k[]	*	*k[]	*
*C:	*	*C:	*	*C:	*	*C:	*
*M3/4	*	*M3/4	*	*M3/4	*	*M3/4	*
*MM121	*	*MM121	*	*MM121	*	*MM121	*
=45	=	=	=	=	=	=	=
(16AAnLL	<	(16d-XLL	<	16a-XLL	<	2.r	.
16FFn	[	16e-X)	.	(16f#X	[	.	.
16BBn)	.	(16en	[	16gn	.	.	.
(16AAnJJ	.	16cnJJ	>	16a-XJJ)	.	.	.
16BB-XLL	.	16dnLL	.	(16f#XLL	.	.	.
16FFn	.	16d-X	.	16gn	.	.	.
16BBnJJ)	.	16e-XJJ)	.	16a-XJJ)	.	.	.
16r	[	16r	]	16r	[	.	.
8r	.	4r	.	4r	.	.	.
(16D#XLL	pp	.	.	.	.	.	.
16EnJJ	.	.	.	.	.	.	.
=46	=46	=46	=46	=46	=46	=46	=46
*M9/16	*	*M9/16	*	*M9/16	*	*M9/16	*
16GnLL	.	16r	.	8.r	.	16%9r	.
16Dn	.	16r	.	.	.	.	.
16C#XJJ	.	(16B-X	pp	.	.	.	.
16F#XLL	.	16AnLL	.	16r	.	.	.
16Cn	.	16Fn	.	16r	.	.	.
16GnJJ	.	16BnJJ	.	(16a-X	pp	.	.
16FnLL	.	16cnLL	.	16gnLL	.	.	.
16BBn	.	16Gn	.	16e-X	.	.	.
16BB-XJJ	.	16d-XJJ	.	16anJJ	.	.	.
=47	=47	=47	=47	=47	=47	=47	=47
!!linebreak:original
16AAnLL)	.	16G-XLL	.	16b-XLL	.	(16ffnLL	.
16DD#X`	ppp	16A-X	.	16fn	.	16een	.
16EEn`JJ	.	16dnJJ	.	16bnJJ	.	16ccnJJ	.
16GG#X`LL	.	16e-XLL	.	16enLL	.	16ff#XLL	.
16DDn`	.	16en)	.	16f#X	.	16ggn	.
16CC#X`JJ	.	16B-X`JJ	pp	16ccnJJ	.	16ddnJJ	.
16FF#X`LL	.	16An`LL	.	16dd-XLL	.	16aa-XLL	.
16CCn`	.	16Fn`	.	16ddn)	.	16dd-X	.
16GGn`JJ	.	16Bn`JJ	.	16a-X`JJ	pp	16ee-XJJ	.
=48	=48	=48	=48	=48	=48	=48	=48
(16FnLL	.	16cn`LL	.	16gn`LL	.	16aanLL	.
16An	.	16Gn`	.	16e-X`	.	16bb-X	.
16E-XJJ	.	16d-X`JJ	.	16an`JJ	.	16bbnJJ)	.
16DnLL	.	(16B-XLL	.	16r	.	16fn`LL	pp
16Gn	.	16G-X	.	16r	.	16en`JJ	.
16D-XJJ	.	16cnJJ	.	(16g#X	.	16r	.
16A-XLL	.	16d-XLL	.	16enLL	.	(16ffnLL	.
16G-X	.	16A-X	.	16a#X	.	16dd-X	.
16CnJJ	.	16dnJJ	.	16bnJJ	.	16ggnJJ	.
=49	=49	=49	=49	=49	=49	=49	=49
16BBnLL	.	16GnLL	.	16g-XLL	.	16aa-XLL	.
16BB-X	.	16An	.	16ccn	.	16ee-X	.
16EnJJ)	.	16e-XJJ	.	16fnJJ	.	16aanJJ	.
16FFn`LL	.	16enLL	.	16gnLL	.	16ddnLL	.
16AAn`	.	16fn	.	16cc#X	.	16een	.
16EE-X`JJ	.	16BnJJ)	.	16ddnJJ	.	16bb-XJJ	.
(16B-XLL	.	16r	.	16ee-XLL	.	16bbnLL	.
16En	.	16B-X`LL	.	16an)	.	16cccn	.
16D#XJJ	.	16G-X`JJ	.	16g#X`JJ	.	16gg-XJJ)	.
=50	=50	=50	=50	=50	=50	=50	=50
!!linebreak:original
16G#XLL	.	16cn`LL	.	16en`LL	.	16r	.
16Dn	.	(16Gn	.	16b-X`	.	16d-X`LL	.
16AnJJ	.	16c#XJJ	.	(16fnJJ	.	16gn`JJ	.
16GnLL	.	16dnLL	.	16bnLL	.	16r	.
16D-X	.	16An	.	16ccn	.	(16ddnLL	.
16CnJJ	.	16e-XJJ	.	16gnJJ	.	16gg#XJJ	.
16BBnLL	.	16A-XLL	.	16dd-XLL	.	16aanLL	.
16Fn	.	16B-X	.	16g-X	.	16een	.
16G-XJJ)	.	16enJJ	.	16a-XJJ	.	16bb-XJJ	.
=51	=51	=51	=51	=51	=51	=51	=51
16BB-X`LL	.	16fnLL	.	16ddnLL	.	16ee-XLL	.
16EEn`	.	16f#X	.	16ee-X	.	16ffn	.
16EE-X`JJ	.	16cnJJ	.	16eenJJ	.	16bbnJJ	.
(16FnLL	.	16BnLL)	.	16b-XLL	.	16cccnLL	.
16En	.	(16dn	.	16an)	.	16ddd-X	.
16AnJJ	.	16e-XJJ	.	16fn`JJ	.	16ggnJJ	.
16E-XLL	.	16B-XLL	.	16bn`LL	.	16ff#X)	.
16B-X	.	16en	.	16ccn`	.	16r	.
16A-XJJ	.	16AnJJ	.	16gn`JJ	.	16r	.
=52	=52	=52	=52	=52	=52	=52	=52
16DnLL	.	16BnLL	.	16dd-X`LL	.	(16aanLL	.
16C#X	.	16fn	.	(16ccn	.	16bb-X	.
16CnJJ	.	16g-XJJ	.	16dd-JJ	.	16ffnJJ	.
16F#XLL	.	16gnLL	.	16a-XLL	.	16bbnLL	.
16Gn	.	16d-X	.	16ddn	.	16een	.
16BnJJ)	.	16cnJJ	.	16gnJJ	.	16ff#XJJ	.
16FFn`LL	.	16A-XLL)	.	16anLL	.	16ccc#XLL	.
16EEn`	.	16dn`	.	16ee-X	.	16ddd-X	.
16AAn`JJ	.	16e-X`JJ	.	16eenJJ	.	16ddd#XJJ	.
=53	=53	=53	=53	=53	=53	=53	=53
!!pagebreak:original
16EE-X`LL	pp	16B-X`LL	.	16ffnLL	.	16aa-XLL	.
16BB-X`	.	(16en	pp	16bn	.	16ggn	.
16AA-X`JJ	.	16BnJJ	.	16a#XJJ	.	16ee-XJJ)	pp
16DDn`LL	.	16fnLL	.	16f#XLL)	pp	8.r	.
16CC#X`	.	16B-X	.	(16ddn	.	.	.
(16FnJJ	.	16cnJJ	.	16anJJ	.	.	.
16B-XLL	.	16f#XLL	.	16dd#XLL	.	(16bbnLL	.
16En	.	16gn	.	16g#X	.	16ff#X	.
16BnJJ	.	16g#XJJ	.	16a#XJJ	.	16cccnJJ	.
=54	=54	=54	=54	=54	=54	=54	=54
16AnLL	.	16dnLL	.	16eenLL	.	16ffnLL	.
16E-X	.	16c#X	.	16ffn	.	16ggn	.
16DnJJ	.	16AnJJ	.	16ff#XJJ	.	16ccc#XJJ	.
16D-XLL	.	16d#XLL)	.	16ccnLL	.	16dddnLL	.
16Gn	.	(16cn	.	16bn	.	16eee-X	.
16A-XJJ	.	16GnJJ 16f#X	.	(16b-XJJ	.	16aanJJ	.
16cnLL	.	16BnLL	.	16cc#XLL) 16ee	.	16gg#XLL	.
16G-XJJ)	.	16c#X	.	16an	.	16ee	.
16r	.	16gnJJ	.	16bnJJ	.	16bb-XJJ)	.
=55	=55	=55	=55	=55	=55	=55	=55
16BB-X`LL	.	16a-XLL	.	16ffnLL	.	(16ggnLL	.
16EEn`JJ	.	16an	.	16gg-X	.	16ddd-X	.
16r	.	16e-XJJ	.	16ggnJJ	.	16gg-XJJ	.
(16BnLL	.	16dnLL	.	16dd-XLL	.	16aa-XLL	.
16Fn	.	16B-X	.	16ccn	.	16dddn	.
16cnJJ	.	16enJJ	.	16a-XJJ	.	16eee-XJJ	.
16B-XLL	.	16fnLL)	.	16ddnLL	.	16eeenLL	.
16En	.	16cn`	.	16ee-X)	.	16bb-X	.
16E-XJJ	.	16g-X`JJ	.	16b-X`JJ	.	16aanJJ	.
=56	=56	=56	=56	=56	=56	=56	=56
!!linebreak:original
16DnLL	.	16c-X`LL	.	16een`LL	.	16ffnLL	.
16G#X	.	16d-X`	.	16an`	.	16bbn	.
16AnJJ	.	16gn`JJ	.	16bn`JJ	.	16cccnJJ)	.
16c#XLL	.	16a-X`LL	.	(16ffnLL	.	16r	.
16Gn	.	16an`	.	16b-X	.	(16dddnLL	.
16F#XJJ)	.	16e-X`JJ	.	16ccnJJ	.	16ggnJJ	.
16BBn`LL	.	16dn`LL	.	16ff#XLL	.	16aanLL	.
16FFn`	.	16B-X`JJ	.	16ggn	.	16eee-X	.
16Cn`JJ	.	16r	.	16gg#XJJ	.	16eeenJJ	.
=57	=57	=57	=57	=57	=57	=57	=57
16BB-X`LL	.	16r	.	16ddnLL	.	16fffnLL	.
(16F#X	.	(16gnLL	.	16cc#X	.	16bbn	.
16c#XJJ	.	16cnJJ	.	16anJJ	.	16aa#XJJ	.
16BnLL	.	16dnLL	.	16dd#XLL	.	16ff#XLL	.
16Fn	.	16a-X	.	16een	.	16cccn	.
16EnJJ	.	16anJJ	.	16bnJJ)	.	16ddd-XJJ	.
16E-XLL	.	16b-XLL	.	16ffn`LL	.	16aa-XLL)	.
16An	.	16en	.	16b-X`	.	16ddn`	.
16B-XJJ	.	16d#XJJ	.	16ccn`JJ	.	16gn`JJ	.
=58	=58	=58	=58	=58	=58	=58	=58
16dnLL	.	16BnLL	.	16ff#X`LL	.	16an`LL	.
16A-X	.	16fn	.	16ggn`	.	16ee-X`	.
16GnJJ	.	16g-XJJ	.	16gg#X`JJ	.	16een`JJ	.
16cnLL)	.	16d-X)	.	16ddn`LL	.	16ffn`	.
(16dn	.	16r	.	(16bn	.	16r	.
16cnJJ	.	16r	.	16cc#XJJ	.	(16aa-X	.
16F#XLL	.	16r	.	16ggnLL	.	16bb-XLL	.
16Fn	.	16gn`LL	.	16aa-X	.	16eeen	.
16EnJJ	.	16c#X`JJ	.	16aanJJ	.	16fffnJJ	.
=59	=59	=59	=59	=59	=59	=59	=59
!!linebreak:original
16A#XLL	.	16dn`LL	.	16ee-XLL	.	16fff#XLL	.
16Bn	.	16a-X`	.	16ddn	.	16cccn	.
16d#XJJ	.	(16d-XJJ	.	16b-XJJ	.	16bbnJJ	.
16AnLL	.	16e-XLL	.	16eenLL	.	16ggnLL	.
16G#X	.	16an	.	16ffn	.	16ccc#X	.
16c#XJJ	.	16b-XJJ	.	16ccnJJ	.	16dddnJJ	.
16GnLL)	.	16bnLL	.	16ff#X)	.	16aanLL	.
(16c#X	.	16fn	.	16r	.	16eee-XJJ)	.
16GnJJ	.	16enJJ	.	(16ddn	.	16r	.
=60	=60	=60	=60	=60	=60	=60	=60
16F#XLL	.	16cnLL	.	16aa-XLL	.	16b-X`LL	.
16Fn	.	16f#X	.	16aan	.	16eeen`JJ	.
16BnJJ	.	16gnJJ	.	16bb-XJJ	.	16r	.
16cnLL	.	16dnLL	.	16eenLL	.	(16bbnLL	.
16en	.	16a-XJJ)	.	16dd#X	.	16fffn	.
16B-XJJ	.	16r	.	16bnJJ	.	16fff#XJJ	.
16AnLL	.	16e-X`LL	.	16ffnLL	.	16gggnLL	.
16dn	.	16an`JJ	.	16gg-X	.	16ddd-X	.
16A-XJJ	.	16r	.	16dd-XJJ	.	16cccnJJ	.
=61	=61	=61	=61	=61	=61	=61	=61
16e-XLL)	.	(16eLL	.	16ggnLL	.	16aa-XLL	.
16C#X`	.	16b-X	.	16ccn)	.	16dddn	.
16GGn`JJ	.	16bnJJ	.	16ddn`JJ	.	16eee-XJJ	.
16GG-X`LL	.	16ccnLL	.	16aa-X`LL	.	16bb-XLL	.
16FFn`	.	16g-X	.	16aan`	.	16eeen	.
16BBn`JJ	.	16fJJ	.	16bb-X`JJ	.	16aanJJ)	.
16Cn`LL	.	16d-XLL	.	16een`LL	.	16r	.
16En`	.	16gn	.	16dd#X`	.	16Bn`LL	.
16BB-X`JJ	.	16a-XJJ)	.	16bn`JJ	.	16fn`JJ	.
==	==	==	==	==	==	==	==
*-	*-	*-	*-	*-	*-	*-	*-
!!!CDT: 1885/02/09-1935/12/24
!!!CBL: Vienna, Austria
!!!CDL: Vienna, Austria
!!!CNT: Austrian
!!!AGN: Instrumental; Chamber
!!!MCN:
!!!MDT: 1927/01/08
!!!MGN: Kolisch Quartet
!!!MLC: Vienna, Austria
!!!MPD: 1927
!!!MPN: Kolisch, Rudolph
!!!ODT: 1926
!!!PDT: 1927
!!!excerpt-start-measure: 45
!!!excerpt-end-measure: 61
!!!excerpt-start-time: 0:51
!!!excerpt-end-time: 1:10
!!!EEV: 2020/01/17
!!!system-decoration: [(s1,s2,s3,s4)]
!!!ONB: Converted from MusicXML on 2020/01/17
